X:1
T:Bellingham Boat, The
T:Bellingham Boat, The
T:Possibly Robert Whinham (1814-1893)
C:Possibly Robert Whinham (1814-1893)
L:1/8
M:6/8
K:G
V:1 treble 
V:1
 B/c/ | d3 cAF | A>GF G2 B | dcc cBB | BAA A2 B/c/ | d3 cAF | G>AF G2 c | B<dB cAF | (G3 G2) :: %9
 B/c/ | d2 d def | g2 g gfe | dbb caa | Bgg AA/B/c | d2 d def | g3 gfe | afd ge^c | d3 d2 :| %18

